X:12533
T:Oxfordshire March. BC.20
M:3/8
L:1/8
Q:30
S:Benjamin Cooke MS.circa 1770, F.Kidson Coll.
R:Misc.
O:England
A:x
N:Rhythm..It's unusual for a march at this date so I've called it Misc.
N:for research later.CGP.
Z:John Bagnall
K:G
GG/A/B/c/ | ddB/d/ | ccA/c/ | BBG | AA/c/B/A/ | GgG | AA/c/B/A/| G2 z :|
